images/socials-icon-2.svg

<svg width="16" height="16" viewBox="0 0 16 16" fill="none" xmlns="http://www.w3.org/2000/svg">
<g clip-path="url(#clip0_130_9419)">
<path fill-rule="evenodd" clip-rule="evenodd" d="M9.855 7.57844C9.69281 7.20344 9.52375 6.82906 9.34344 6.45875C10.8831 5.79187 12.1206 4.88625 13.0425 3.73781C13.9419 4.80062 14.5066 6.15031 14.5897 7.6275C12.8731 7.34656 11.2944 7.33094 9.855 7.57844ZM11.6681 13.4931C11.3763 11.925 10.9478 10.3916 10.3884 8.89563C11.6388 8.71875 13.0153 8.76469 14.5206 9.02656C14.2294 10.8837 13.1694 12.4881 11.6681 13.4931ZM3.94438 13.2069C5.25688 11.1478 6.93281 9.8075 9.00937 9.18875C9.62719 10.8025 10.0822 12.4619 10.3716 14.1619C8.20844 14.9978 5.77781 14.6388 3.94438 13.2069ZM1.40031 7.82969C3.96562 7.82594 6.17875 7.53125 8.03312 6.94781C8.18844 7.26438 8.33719 7.5825 8.47937 7.90281C6.22719 8.60656 4.37031 10.05 2.92219 12.2228C1.87969 10.9716 1.36063 9.45406 1.40031 7.82969ZM5.01844 2.11C5.90625 3.27156 6.69219 4.46906 7.37625 5.69781C5.75594 6.17469 3.8225 6.41969 1.58656 6.435C2.04844 4.545 3.32094 2.97312 5.01844 2.11ZM12.0288 2.77312C11.2256 3.80875 10.1169 4.62781 8.70406 5.22594C8.02719 3.98562 7.25344 2.77563 6.37937 1.60125C8.35812 1.09656 10.405 1.51906 12.0288 2.77312ZM7.99969 0C3.58156 0 0 3.58187 0 8C0 12.4181 3.58156 16 7.99969 16C12.4184 16 16 12.4181 16 8C16 3.58187 12.4181 0 7.99969 0Z" fill="white"/>
</g>
<defs>
<clipPath id="clip0_130_9419">
<rect width="16" height="16" fill="white"/>
</clipPath>
</defs>
</svg>

<svg width="16" height="16" fill="none" xmlns="http://www.w3.org/2000/svg"><g clip-path="url(#clip0_130_9419)"><path fill-rule="evenodd" clip-rule="evenodd" d="M9.855 7.578a26.69 26.69 0 00-.512-1.12c1.54-.666 2.778-1.572 3.7-2.72a6.577 6.577 0 011.547 3.89c-1.717-.281-3.296-.297-4.735-.05zm1.813 5.915a27.444 27.444 0 00-1.28-4.597c1.25-.177 2.627-.131 4.133.13a6.609 6.609 0 01-2.853 4.467zm-7.724-.286c1.313-2.06 2.989-3.4 5.065-4.018a26.166 26.166 0 011.363 4.973 6.571 6.571 0 01-6.428-.955zM1.4 7.83c2.566-.004 4.779-.299 6.633-.882.155.316.304.634.446.955-2.252.704-4.109 2.147-5.557 4.32A6.509 6.509 0 011.4 7.83zm3.618-5.72a29.692 29.692 0 012.358 3.588c-1.62.477-3.554.722-5.79.737A6.627 6.627 0 015.019 2.11zm7.01.663c-.802 1.036-1.911 1.855-3.324 2.453A30.696 30.696 0 006.38 1.6a6.521 6.521 0 015.65 1.172zM8 0a8 8 0 100 16A8 8 0 008 0z" fill="#fff"/></g><defs><clipPath id="clip0_130_9419"><path fill="#fff" d="M0 0h16v16H0z"/></clipPath></defs></svg>
